X: 119
T:Beef Stake Hornpipe. JC.119
M:C|
L:1/8
Q:145
S:John Clare,Poet,Helpston. (1793-1864)
R:Hornpipe
O:England
A:Northamptonshire
N:
Z:vmp.P. Headford
K:D
(cB)|dcde dAFA|Bdce dcBA|BGFG AFdD|EFGA GFED|!
dcde fdAF|EFGA Bcde|cAfe cAB^G|A2A2A2:|!
|:z2|A2A2Acef|gefd dcBA|BGFG AFdF|GEFD DCB,A,|!
dAFA GBEG|FAdf ecAF|GBEG FADE|D2D2D2:|]
